lib/brands/icons/microsoft-authenticator.svg

<svg xmlns="http://www.w3.org/2000/svg" fill="none" aria-hidden="true" viewBox="0 0 48 48"><g id="microsoft-authenticator-Icon"><g id="Group"><path id="Vector" fill="#0078D7" d="M41.5464 44H6.4536C5.09396 44 4 42.8982 4 41.5464V6.4536C4 5.09396 5.10178 4 6.4536 4H41.5464C42.906 4 44 5.10178 44 6.4536V41.5464C44 42.906 42.906 44 41.5464 44Z"/><g id="Vector_2"><path fill="white" d="M31.5058 16.8385C31.5137 16.7212 31.5137 16.6118 31.5137 16.4946C31.5137 12.3454 28.1458 8.98535 24.0122 8.96973C19.8551 8.96973 16.4951 12.3376 16.4951 16.4868C16.4951 16.604 16.4951 16.7212 16.5029 16.8385C17.4093 16.6431 18.3548 16.4868 19.3316 16.3618C19.3941 13.8379 21.4648 11.814 24.0044 11.814C26.5439 11.814 28.6068 13.8379 28.6772 16.3618C29.6539 16.4868 30.5994 16.6431 31.5058 16.8385Z"/><path fill="white" fill-rule="evenodd" d="M35.28 19.2452C35.28 19.2452 37.3039 33.4511 24.0356 39.0303H24.0044C10.7362 33.4511 12.76 19.2452 12.76 19.2452C15.8544 18.0887 19.7614 17.4011 24.02 17.4011C28.2787 17.4011 32.1857 18.0887 35.28 19.2452ZM27.6613 30.5599C27.6848 30.4036 27.6926 30.2473 27.6926 30.0832C27.6926 28.4266 26.5986 27.0201 25.0827 26.5669C26.0985 26.145 26.8174 25.1448 26.8174 23.9727C26.8174 22.4255 25.5594 21.1674 24.0122 21.1674C22.465 21.1674 21.207 22.4177 21.207 23.9727C21.207 25.1448 21.9259 26.145 22.9417 26.5669C21.4336 27.0279 20.3396 28.4266 20.3396 30.0832C20.3396 30.2473 20.3474 30.4036 20.3709 30.5599H27.6613Z" clip-rule="evenodd"/></g></g></g></svg>

<svg xmlns="http://www.w3.org/2000/svg" fill="none" aria-hidden="true" viewBox="0 0 48 48"><path fill="#0078D7" d="M41.546 44H6.454A2.453 2.453 0 0 1 4 41.546V6.454A2.453 2.453 0 0 1 6.454 4h35.092A2.453 2.453 0 0 1 44 6.454v35.092A2.448 2.448 0 0 1 41.546 44Z"/><path fill="#fff" d="M31.505 16.838c.008-.117.008-.226.008-.343 0-4.15-3.368-7.51-7.501-7.525a7.515 7.515 0 0 0-7.51 7.868 33.835 33.835 0 0 1 2.83-.476 4.67 4.67 0 0 1 4.672-4.548 4.676 4.676 0 0 1 4.673 4.548c.976.125 1.922.281 2.828.477Z"/><path fill="#fff" fill-rule="evenodd" d="M35.28 19.245s2.023 14.206-11.245 19.785h-.031c-13.268-5.579-11.245-19.785-11.245-19.785 3.095-1.156 7.002-1.844 11.26-1.844 4.26 0 8.166.688 11.26 1.844ZM27.66 30.56a3.667 3.667 0 0 0-2.579-3.993 2.81 2.81 0 0 0 1.736-2.594 2.808 2.808 0 0 0-2.805-2.806 2.803 2.803 0 0 0-2.806 2.806 2.81 2.81 0 0 0 1.735 2.594 3.676 3.676 0 0 0-2.57 3.993h7.29Z" clip-rule="evenodd"/></svg>
